X:8483
T:KEROUEZEE -4-
Z: Yves BELOTTEAU
M:6/8
L:1/8
Q:1/4=60
K:C
|G/2c/2e/2gg/2 ag/2gf/2|de/2f/2e/2f/2 gf/2ec/2|G/2c/2e/2gg/2 ag/2gf/2|de
/2g/2f/2e/2 d/2e/2d/2c3/2|
G/2c/2e/2gg/2 ag/2gf/2|de/2f/2e/2f/2 gf/2ec/2|G/2c/2e/2gg/2 ag/2gf/2|de/
2g/2f/2e/2 d/2e/2d/2c3/2|
c/2B/2c/2dd/2 gf/2ed/2|c/2B/2c/2dd/2 ed/2cG/2|c/2B/2c/2dd/2 gf/2ed/2|c/2
B/2c/2dd/2 ed/2cG/2|
cd/2e3/2 d3/2c3/2|f3/2e3/2 d3/2e3/2|f/2g/2f/2e/2f/2e/2 d/2e/2d/2c3/2|
